material/.icons/material/teamviewer.svg

<svg xmlns="http://www.w3.org/2000/svg" viewBox="0 0 24 24"><path d="M10.04 9.2L9.3 11h5.45L14 9.2l5.55 2.8L14 14.8l.75-1.8H9.3l.74 1.8L4.5 12l5.54-2.8M20.83 22H3.17C2.53 22 2 21.5 2 20.83V3.17C2 2.53 2.53 2 3.17 2h17.66C21.5 2 22 2.53 22 3.17v17.66c0 .64-.5 1.17-1.17 1.17m-8.9-18.24C7.41 3.82 3.78 7.5 3.76 12c-.04 4.5 3.59 8.2 8.1 8.24H12A8.346 8.346 0 0020.24 12c.07-4.5-3.5-8.17-7.98-8.24-.11-.01-.22 0-.33 0z"/></svg>

<?xml version="1.0" encoding="UTF-8"?><!DOCTYPE svg PUBLIC "-//W3C//DTD SVG 1.1//EN" "http://www.w3.org/Graphics/SVG/1.1/DTD/svg11.dtd"><svg xmlns="http://www.w3.org/2000/svg" xmlns:xlink="http://www.w3.org/1999/xlink" version="1.1" id="mdi-teamviewer" width="24" height="24" viewBox="0 0 24 24"><path d="M10.04 9.2L9.3 11H14.75L14 9.2L19.55 12L14 14.8L14.75 13H9.3L10.04 14.8L4.5 12L10.04 9.2M20.83 22H3.17C2.53 22 2 21.5 2 20.83V3.17C2 2.53 2.53 2 3.17 2H20.83C21.5 2 22 2.53 22 3.17V20.83C22 21.47 21.5 22 20.83 22M11.93 3.76C7.41 3.82 3.78 7.5 3.76 12C3.72 16.5 7.35 20.2 11.86 20.24H12C16.53 20.18 20.18 16.53 20.24 12C20.31 7.5 16.74 3.83 12.26 3.76C12.15 3.75 12.04 3.76 11.93 3.76Z" /></svg>
